X:1
T:Partition sans titre
C:Compositeur / Arrangeur
L:1/8
M:4/4
I:linebreak $
K:D
V:1 treble nm="Violon" snm="Vln."
V:1
 (3ABc |"D" d2 c2 B2 A2 | F6 (3ABc | d2 cd e2 d2 |"G" B6 cd |"A" e2 d2 c2 B2 | c4 cdcB | %7
"D" A2 g2 f2 e2 |1 d6 :|2 d6 AF |:"D" D2 FA DAFA |"G" G2 BG dGBG |"A" A2 ce Aece |"D" dfed cBAF | %14
"D" D2 FA DAFA |"G" G2 BG dGBG |"A" Acef gece |1"D" d2 f2 d2 AF :|2"D" d2 f2 d2 :| %19
